assets/membership-password-is-hiding.svg

<svg fill="none" height="15" viewBox="0 0 22 15" width="22" xmlns="http://www.w3.org/2000/svg"><path d="m16.6909 14.062c.2197.2271.5713.2417.7984 0 .2343-.2417.2197-.5713 0-.7983l-12.24614-12.2388c-.21972-.219724-.58593-.219724-.80566 0-.2124.2124-.2124.58594 0 .79834zm-5.6909-12.61962c-1.27441 0-2.43164.21973-3.5083.57862l.9668.95947c.80566-.2417 1.6333-.38086 2.5415-.38086 4.8193 0 8.7231 4.24805 8.7231 5.11963 0 .59326-1.2817 2.18994-3.3105 3.43506l.9009.9009c2.3144-1.5015 3.6914-3.4717 3.6914-4.33596 0-1.50147-4.0869-6.27686-10.0049-6.27686zm0 12.55372c1.3623 0 2.6074-.2417 3.7427-.6299l-.9595-.9595c-.8716.271-1.7944.4322-2.7832.4322-4.82666 0-8.73047-4.08695-8.73047-5.11966 0-.5127 1.35498-2.21924 3.51563-3.51563l-.90821-.9082c-2.43896 1.50879-3.889157 3.5376-3.889157 4.42383 0 1.49414 4.167477 6.27686 10.012207 6.27686zm3.7573-4.67286c.2271-.49072.3516-1.04004.3516-1.604 0-2.29248-1.8311-4.10156-4.1089-4.10156-.5786 0-1.12061.12451-1.61133.33691zm-3.7573 2.49756c.6445 0 1.2524-.1611 1.7944-.4248l-5.49313-5.49317c-.271.54199-.42481 1.15723-.42481 1.81641.00733 2.23388 1.83106 4.10156 4.12354 4.10156z" fill="#054f77"/></svg>

<svg width="22" height="15" viewBox="0 0 22 15" fill="none" xmlns="http://www.w3.org/2000/svg">
<path d="M16.6909 14.062C16.9106 14.2891 17.2622 14.3037 17.4893 14.062C17.7236 13.8203 17.709 13.4907 17.4893 13.2637L5.24316 1.0249C5.02344 0.805176 4.65723 0.805176 4.4375 1.0249C4.2251 1.2373 4.2251 1.61084 4.4375 1.82324L16.6909 14.062ZM11 1.44238C9.72559 1.44238 8.56836 1.66211 7.4917 2.021L8.4585 2.98047C9.26416 2.73877 10.0918 2.59961 11 2.59961C15.8193 2.59961 19.7231 6.84766 19.7231 7.71924C19.7231 8.3125 18.4414 9.90918 16.4126 11.1543L17.3135 12.0552C19.6279 10.5537 21.0049 8.5835 21.0049 7.71924C21.0049 6.21777 16.918 1.44238 11 1.44238ZM11 13.9961C12.3623 13.9961 13.6074 13.7544 14.7427 13.3662L13.7832 12.4067C12.9116 12.6777 11.9888 12.8389 11 12.8389C6.17334 12.8389 2.26953 8.75195 2.26953 7.71924C2.26953 7.20654 3.62451 5.5 5.78516 4.20361L4.87695 3.29541C2.43799 4.8042 0.987793 6.83301 0.987793 7.71924C0.987793 9.21338 5.15527 13.9961 11 13.9961ZM14.7573 9.32324C14.9844 8.83252 15.1089 8.2832 15.1089 7.71924C15.1089 5.42676 13.2778 3.61768 11 3.61768C10.4214 3.61768 9.87939 3.74219 9.38867 3.95459L14.7573 9.32324ZM11 11.8208C11.6445 11.8208 12.2524 11.6597 12.7944 11.396L7.30127 5.90283C7.03027 6.44482 6.87646 7.06006 6.87646 7.71924C6.88379 9.95312 8.70752 11.8208 11 11.8208Z" fill="#054F77"/>
</svg>
